X: 1
T: Monferrina   [G,D]
O: Italy
R: jig
Z: 2011 John Chambers <jc:trillian.mit.edu>
M: 6/8
L: 1/8
K: G
"D7"DEF |\
"G"GFG BGB | d2d ded | "D7"fed cBA | "G"B2G "D7"DEF |
y4 |\
"G"GFG BGB | d2d ded | "D7"fed cBA | "G"G2G :|
K: D
|: "A7"A2A |\
"D"A2A ABA | "A7"GFE "D"F2D | "D"A2A ABA | "A7"ABc "D"dFG |
y4 |\
"D"A2A ABA | "A7"GFE "D"F2D | "D"ABA "A7"GFE | "D"D3 :|
